X: 1
T:Sweets of May
R:Jig
O:Ireland
M:6/8
L:1/8
K:G
d2c|BAG AGF|G2G G2A|BcB GAB|c3 d2c|!
BAG AGF|G2G G2A|BdB cAF|1 G3:|2 G3 G2!
|:A|ABA A2G|E2F G3|ABA c2d|e2d c2B|!
ABA A2G|E2F G3|A2A BAG|1 A3 A2:|2 A3 ABc|!
d3 d3|D3 D3|c3 c3|D3 D3|!
G2D G2A|B2G B2c|ded cBA|G3 GBc|!
ded dBG|D3 D3|cdc cAF|D3 DEF|!
G2D G2A|B2G B2c|ded cBA|G3||!
